copytrade/img/icomoon/wallet.svg

<svg width="24" height="24" viewBox="0 0 24 24" fill="none" xmlns="http://www.w3.org/2000/svg">
<path fill-rule="evenodd" clip-rule="evenodd" d="M2 7C2 4.23858 4.23858 2 7 2H17C19.7614 2 22 4.23858 22 7V8H15C12.7909 8 11 9.79086 11 12C11 14.2091 12.7909 16 15 16H22V17C22 19.7614 19.7614 22 17 22H7C4.23858 22 2 19.7614 2 17V7ZM22 10V14H15C13.8954 14 13 13.1046 13 12C13 10.8954 13.8954 10 15 10H22ZM14 12C14 11.4477 14.4477 11 15 11H15.1C15.6523 11 16.1 11.4477 16.1 12C16.1 12.5523 15.6523 13 15.1 13H15C14.4477 13 14 12.5523 14 12Z" fill="#A6ACB7"/>
</svg>

<svg width="24" height="24" fill="none" xmlns="http://www.w3.org/2000/svg"><path fill-rule="evenodd" clip-rule="evenodd" d="M2 7a5 5 0 015-5h10a5 5 0 015 5v1h-7a4 4 0 000 8h7v1a5 5 0 01-5 5H7a5 5 0 01-5-5V7zm20 3v4h-7a2 2 0 110-4h7zm-8 2a1 1 0 011-1h.1a1 1 0 110 2H15a1 1 0 01-1-1z" fill="#A6ACB7"/></svg>
